X: 3
T: Kevin Keegan's
R: waltz
M: 3/4
L: 1/8
K: Gmaj
   BG DG Bd | c2 B2 c2 | d2 g3e      |  d3e dc       |
   BG DG Bd | c2 A3G   | F/G/A d2 D2 |  F/G/A d2 D2  |
   BG DG Bd | c2 B2 c2 | d2 g3e      |  d3e dc       |
   BG DG Bd | c2  A2 F2 | G3B AF      |1 G4 dc      :|2 G3 A Bd |
|: g3 g g2  | f3 f f2  | e2 f2 g2    |  d3e dc       |
   BG DG Bd | c2 A3G   | F/G/A d2 D2 |  F/G/A d2 D2  |
[1 g3 g g2  | f3 f f2  | e2 f2 g2    | d3e dc        |
   BG DG Bd | c2 A2 F2 | G3B AF      | G3 A Bd      :|
[2 BG DG Bd | c2 B2 c2 | d2 g3 e     | d3 e dc       |
   BG DG Bd | c2 A2 F2 | G3B AF      | G4   dc       |]



